site/static/icon/typescript.svg

<svg fill="none" height="256" viewBox="0 0 256 256" width="256" xmlns="http://www.w3.org/2000/svg"><rect fill="#3178c6" height="256" rx="20" width="256"/><path clip-rule="evenodd" d="m150.518 200.475v27.62c4.492 2.302 9.805 4.028 15.938 5.179s12.597 1.726 19.393 1.726c6.622 0 12.914-.633 18.874-1.899s11.187-3.352 15.678-6.257c4.492-2.906 8.048-6.704 10.669-11.394 2.62-4.689 3.93-10.486 3.93-17.391 0-5.006-.749-9.394-2.246-13.163s-3.657-7.121-6.479-10.055c-2.821-2.935-6.205-5.567-10.149-7.898-3.945-2.33-8.394-4.531-13.347-6.602-3.628-1.497-6.881-2.949-9.761-4.359-2.879-1.41-5.327-2.848-7.342-4.316-2.016-1.467-3.571-3.021-4.665-4.661s-1.641-3.495-1.641-5.567c0-1.899.489-3.61 1.468-5.135s2.362-2.834 4.147-3.927c1.785-1.094 3.973-1.942 6.565-2.547 2.591-.604 5.471-.906 8.638-.906 2.304 0 4.737.173 7.299.518 2.563.345 5.14.877 7.732 1.597 2.591.719 5.11 1.625 7.558 2.719 2.447 1.093 4.708 2.359 6.781 3.797v-25.807c-4.204-1.611-8.797-2.805-13.778-3.582s-10.697-1.165-17.147-1.165c-6.565 0-12.784.705-18.658 2.115-5.874 1.409-11.043 3.61-15.506 6.602-4.463 2.993-7.99 6.805-10.582 11.437-2.591 4.632-3.887 10.17-3.887 16.615 0 8.228 2.375 15.248 7.127 21.06 4.751 5.811 11.963 10.731 21.638 14.759 3.801 1.554 7.343 3.078 10.625 4.575 3.283 1.496 6.119 3.049 8.509 4.66s4.276 3.366 5.658 5.265 2.073 4.057 2.073 6.474c0 1.783-.432 3.438-1.296 4.963-.863 1.524-2.174 2.848-3.93 3.97s-3.945 1.999-6.565 2.632-5.687.95-9.2.95c-5.989 0-11.92-1.05-17.794-3.151-5.875-2.1-11.317-5.25-16.327-9.451zm-46.036-68.733h35.518v-22.742h-99v22.742h35.3447v101.258h28.1373z" fill="#fff" fill-rule="evenodd"/></svg>

<svg width="256" height="256" viewBox="0 0 256 256" fill="none" xmlns="http://www.w3.org/2000/svg">
<g clip-path="url(#clip0_2115_2508)">
<path d="M236 0H20C8.9543 0 0 8.9543 0 20V236C0 247.046 8.9543 256 20 256H236C247.046 256 256 247.046 256 236V20C256 8.9543 247.046 0 236 0Z" fill="#3178C6"/>
<path fill-rule="evenodd" clip-rule="evenodd" d="M150.518 200.475V228.095C155.01 230.397 160.323 232.123 166.456 233.274C172.589 234.425 179.053 235 185.849 235C192.471 235 198.763 234.367 204.723 233.101C210.683 231.835 215.91 229.749 220.401 226.844C224.893 223.938 228.449 220.14 231.07 215.45C233.69 210.761 235 204.964 235 198.059C235 193.053 234.251 188.665 232.754 184.896C231.257 181.127 229.097 177.775 226.275 174.841C223.454 171.906 220.07 169.274 216.126 166.943C212.181 164.613 207.732 162.412 202.779 160.341C199.151 158.844 195.898 157.392 193.018 155.982C190.139 154.572 187.691 153.134 185.676 151.666C183.66 150.199 182.105 148.645 181.011 147.005C179.917 145.365 179.37 143.51 179.37 141.438C179.37 139.539 179.859 137.828 180.838 136.303C181.817 134.778 183.2 133.469 184.985 132.376C186.77 131.282 188.958 130.434 191.55 129.829C194.141 129.225 197.021 128.923 200.188 128.923C202.492 128.923 204.925 129.096 207.487 129.441C210.05 129.786 212.627 130.318 215.219 131.038C217.81 131.757 220.329 132.663 222.777 133.757C225.224 134.85 227.485 136.116 229.558 137.554V111.747C225.354 110.136 220.761 108.942 215.78 108.165C210.799 107.388 205.083 107 198.633 107C192.068 107 185.849 107.705 179.975 109.115C174.101 110.524 168.932 112.725 164.469 115.717C160.006 118.71 156.479 122.522 153.887 127.154C151.296 131.786 150 137.324 150 143.769C150 151.997 152.375 159.017 157.127 164.829C161.878 170.64 169.09 175.56 178.765 179.588C182.566 181.142 186.108 182.666 189.39 184.163C192.673 185.659 195.509 187.212 197.899 188.823C200.289 190.434 202.175 192.189 203.557 194.088C204.939 195.987 205.63 198.145 205.63 200.562C205.63 202.345 205.198 204 204.334 205.525C203.471 207.049 202.16 208.373 200.404 209.495C198.648 210.617 196.459 211.494 193.839 212.127C191.219 212.76 188.152 213.077 184.639 213.077C178.65 213.077 172.719 212.027 166.845 209.926C160.97 207.826 155.528 204.676 150.518 200.475ZM104.482 131.742H140V109H41V131.742H76.3447V233H104.482V131.742Z" fill="white"/>
</g>
<defs>
<clipPath id="clip0_2115_2508">
<rect width="256" height="256" fill="white"/>
</clipPath>
</defs>
</svg>
